X: 3
T: The Lark In The Morning
R: jig
M: 6/8
L: 1/8
K: Dmaj
AAA DDD|DEF A2d|BGG dGG|BBB BdB|AAA DDD|DEF A2c|def gfe|fd^c dcB:||:ABd fdd|add fdB|Add fed|edB BAF|Add fdd|add fdd|faf gfd|ed^c d2B:|


Tune 62	Setting 12509

